img/logo__mob.svg

<svg width="50" height="84" viewBox="0 0 50 84" fill="none" xmlns="http://www.w3.org/2000/svg">
<g clip-path="url(#clip0)">
<path d="M0.5 -21L0.500004 81" stroke="#F04E23"/>
<path d="M21.1111 46.9547H16.2963V63.3576H8.02466V23.2754H16.2963V39.3083H20.1234L29.8765 23.2754H40L27.6543 42.2682L41.358 63.3576H31.4815L21.1111 46.9547Z" fill="black"/>
<path d="M8.51855 79.5139V73.1007H9.2593V76.0606C9.50621 75.814 9.75312 75.5673 10 75.3206C10.247 75.074 10.6173 74.8273 10.8642 74.4573C11.1111 74.2107 11.3581 73.964 11.605 73.7174C11.8519 73.4707 11.9753 73.224 12.2223 73.1007H13.2099C12.963 73.3474 12.8395 73.594 12.5926 73.8407C12.3457 74.0874 12.0988 74.334 11.7284 74.704C11.4815 74.9507 11.2346 75.1973 10.8642 75.444C10.4939 75.6906 10.3704 75.9373 10.1235 76.0606C10.3704 76.184 10.7408 76.4306 10.9877 76.6773C11.3581 76.9239 11.605 77.2939 11.8519 77.5406C12.0988 77.9106 12.4692 78.1572 12.7161 78.5272C12.963 78.8972 13.2099 79.1439 13.3334 79.3905H12.3457C12.0988 79.1439 11.9753 78.7739 11.605 78.4039C11.2346 78.0339 11.1111 77.7872 10.7408 77.5406C10.4939 77.2939 10.1235 77.0473 9.87658 76.8006C9.62967 76.5539 9.2593 76.4306 9.13584 76.1839V79.3905H8.51855V79.5139Z" fill="black"/>
<path d="M19.1359 73.8407V74.0874C19.1359 74.334 19.1359 74.5807 19.1359 74.9507C19.1359 75.1973 19.1359 75.5673 19.1359 75.814C19.1359 76.0606 19.0124 76.4306 19.0124 76.6773C19.0124 76.9239 18.889 77.2939 18.7655 77.5406C18.6421 77.7872 18.5186 78.0339 18.3952 78.2806C18.2717 78.5272 18.1482 78.7739 17.9013 78.8972C17.6544 79.0205 17.531 79.2672 17.284 79.3905C17.0371 79.5139 16.7902 79.6372 16.4198 79.6372L16.2964 79.0205C16.6668 78.8972 17.0371 78.7739 17.284 78.5272C17.531 78.2806 17.7779 77.9106 17.9013 77.4173C18.0248 76.9239 18.1482 76.4306 18.2717 75.814C18.2717 75.1973 18.3952 74.5807 18.3952 73.8407V73.1007H22.3458V79.5139H21.4816V73.8407H19.1359V73.8407Z" fill="black"/>
<path d="M28.395 79.6372C28.1481 79.1439 27.9012 78.6505 27.6543 78.0339C27.4074 77.4173 27.1605 76.9239 26.9136 76.4306C26.6667 75.814 26.5432 75.3206 26.2963 74.8273C26.1728 74.334 25.9259 73.7174 25.8025 73.224H26.6667C26.7901 73.594 26.9136 74.0874 27.037 74.4573C27.1605 74.8273 27.2839 75.444 27.5309 75.814C27.6543 76.3073 27.9012 76.8006 28.1481 77.2939C28.395 77.7872 28.642 78.2806 28.8889 78.7739C29.0123 78.2806 29.2592 77.7872 29.3827 77.2939C29.5062 76.8006 29.6296 76.4306 29.7531 75.9373C29.8765 75.444 30 75.074 30.1234 74.5807C30.2469 74.0874 30.3704 73.594 30.4938 73.1007H31.2346C30.9876 74.334 30.6173 75.444 30.3704 76.5539C30 77.6639 29.6296 78.7739 29.2592 79.6372C29.1358 80.0072 28.8889 80.3772 28.7654 80.6238C28.642 80.8705 28.395 81.1172 28.2716 81.2405C28.0247 81.3638 27.7778 81.4871 27.5309 81.6105C27.2839 81.7338 26.9136 81.7338 26.5432 81.7338C26.2963 81.7338 26.1728 81.7338 25.9259 81.6105C25.8025 81.6105 25.679 81.4871 25.5555 81.4871L25.679 80.8705C25.679 80.8705 25.8025 80.8705 25.9259 80.9938C26.0494 80.9938 26.2963 81.1171 26.4197 81.1171C26.6667 81.1171 26.9136 81.1171 27.037 80.9938C27.1605 80.8705 27.4074 80.8705 27.5309 80.7472C27.6543 80.6238 27.7778 80.5005 27.9012 80.2538C28.0247 80.0072 28.2716 79.8839 28.395 79.6372Z" fill="black"/>
<path d="M35.3087 74.0873C35.4321 73.964 35.5556 73.8407 35.8025 73.7174C36.0494 73.594 36.1729 73.4707 36.4198 73.4707C36.6667 73.3474 36.7901 73.3474 37.0371 73.3474C37.284 73.3474 37.4074 73.3474 37.5309 73.3474C38.0247 73.3474 38.3951 73.4707 38.7654 73.594C39.1358 73.7174 39.3827 73.964 39.6296 74.2107C39.8766 74.4573 40 74.8273 40.1235 75.1973C40.2469 75.5673 40.2469 76.0606 40.2469 76.5539C40.2469 76.9239 40.2469 77.2939 40.1235 77.6639C40 78.0339 39.8766 78.4039 39.6296 78.6506C39.3827 79.0205 39.1358 79.2672 38.7654 79.3905C38.3951 79.5139 37.9012 79.6372 37.4074 79.6372C36.7901 79.6372 36.2963 79.5139 35.9259 79.2672C35.5556 79.0205 35.3087 78.7739 35.0617 78.2806C34.8148 77.9106 34.6914 77.4173 34.5679 77.0473C34.4445 76.6773 34.4445 76.0606 34.4445 75.5673C34.4445 74.9507 34.4445 74.2107 34.5679 73.594C34.6914 72.9774 34.8148 72.4841 35.0617 71.9907C35.3087 71.4974 35.679 71.1274 36.1729 70.7574C36.6667 70.3875 37.284 70.2641 38.1482 70.1408C38.3951 70.1408 38.642 70.1408 38.7654 70.0175C38.8889 70.0175 39.0124 70.0175 39.1358 70.0175C39.2593 70.0175 39.3827 70.0175 39.3827 70.0175C39.3827 70.0175 39.5062 70.0175 39.6296 70.0175L39.7531 70.7574C39.6296 70.7574 39.5062 70.8808 39.3827 70.8808C39.2593 70.8808 38.8889 71.0041 38.3951 71.0041C37.9012 71.0041 37.5309 71.1274 37.1605 71.2508C36.7901 71.3741 36.5432 71.6207 36.2963 71.8674C36.0494 72.1141 35.8025 72.3607 35.679 72.7307C35.5556 73.1007 35.4321 73.594 35.3087 74.0873ZM35.3087 74.9507C35.3087 75.074 35.3087 75.074 35.3087 75.3206C35.3087 75.5673 35.3087 75.5673 35.3087 75.6906C35.3087 76.0606 35.3087 76.4306 35.4321 76.8006C35.4321 77.1706 35.5556 77.5406 35.8025 77.7872C35.9259 78.0339 36.1729 78.2806 36.4198 78.5272C36.6667 78.6506 37.0371 78.7739 37.4074 78.7739C37.7778 78.7739 38.0247 78.6506 38.2716 78.5272C38.5185 78.4039 38.7654 78.1572 38.8889 77.9106C39.0124 77.6639 39.1358 77.4173 39.2593 77.0473C39.3827 76.8006 39.3827 76.4306 39.3827 76.0606C39.3827 75.6906 39.3827 75.444 39.2593 75.074C39.2593 74.8273 39.1358 74.4573 38.8889 74.334C38.7654 74.0873 38.5185 73.964 38.2716 73.8407C38.0247 73.7174 37.6543 73.594 37.284 73.594C37.0371 73.594 36.9136 73.594 36.6667 73.7174C36.4198 73.8407 36.2963 73.8407 36.0494 73.964C35.9259 74.0874 35.679 74.2107 35.5556 74.334C35.4321 74.4573 35.4321 74.8273 35.3087 74.9507Z" fill="black"/>
</g>
<defs>
<clipPath id="clip0">
<rect width="50" height="84" fill="white"/>
</clipPath>
</defs>
</svg>

<svg width="50" height="84" fill="none" xmlns="http://www.w3.org/2000/svg"><g clip-path="url(#clip0)"><path d="M.5-21V81" stroke="#F04E23"/><path d="M21.111 46.955h-4.815v16.403H8.025V23.275h8.271v16.033h3.827l9.753-16.033H40L27.654 42.268l13.704 21.09h-9.876l-10.37-16.403zM8.519 79.514V73.1h.74v2.96l.741-.74c.247-.247.617-.494.864-.864l.741-.74c.247-.246.37-.493.617-.616h.988c-.247.246-.37.493-.617.74l-.865.863c-.246.247-.493.493-.864.74-.37.247-.494.493-.74.617.246.123.617.37.864.616.37.247.617.617.864.864.247.37.617.616.864.986s.494.617.617.864h-.987c-.247-.247-.37-.617-.741-.987-.37-.37-.494-.617-.864-.863-.247-.247-.617-.494-.864-.74-.247-.247-.618-.37-.741-.617v3.207h-.617v.123zm10.617-5.674v1.974c0 .247-.124.617-.124.863 0 .247-.123.617-.247.864l-.37.74c-.123.246-.247.493-.494.616s-.37.37-.617.493c-.247.124-.494.247-.864.247l-.124-.617c.37-.123.741-.246.988-.493.247-.246.494-.616.617-1.11.124-.493.247-.986.37-1.603 0-.617.124-1.233.124-1.973v-.74h3.95v6.413h-.863V73.84h-2.346zm9.259 5.797a20.071 20.071 0 01-.74-1.603 20.071 20.071 0 00-.741-1.603c-.247-.617-.37-1.11-.618-1.604-.123-.493-.37-1.11-.494-1.603h.865c.123.37.247.863.37 1.233.123.37.247.987.494 1.357.123.493.37.987.617 1.48l.74 1.48c.124-.493.371-.987.495-1.48.123-.493.247-.863.37-1.357.123-.493.247-.863.37-1.356l.37-1.48h.742c-.247 1.233-.618 2.343-.865 3.453-.37 1.11-.74 2.22-1.11 3.083-.124.37-.371.74-.495.987-.123.247-.37.493-.493.617l-.741.37c-.247.123-.617.123-.988.123-.247 0-.37 0-.617-.123-.123 0-.247-.124-.37-.124l.123-.616s.123 0 .247.123c.123 0 .37.123.494.123.247 0 .494 0 .617-.123s.37-.123.494-.247c.123-.123.247-.246.37-.493.124-.247.37-.37.494-.617zm6.914-5.55c.123-.123.247-.246.494-.37.246-.123.37-.246.617-.246.247-.124.37-.124.617-.124h.494c.494 0 .864.124 1.234.247s.618.37.865.617c.247.246.37.616.493.986.124.37.124.864.124 1.357 0 .37 0 .74-.123 1.11-.124.37-.247.74-.494.987-.247.37-.494.616-.865.74-.37.123-.864.246-1.358.246-.617 0-1.11-.123-1.481-.37-.37-.246-.617-.493-.864-.986-.247-.37-.37-.864-.494-1.234-.123-.37-.123-.986-.123-1.48 0-.616 0-1.356.123-1.973s.247-1.11.494-1.603c.247-.494.617-.864 1.11-1.234.495-.37 1.112-.493 1.976-.616.247 0 .494 0 .617-.124h.865l.123.74c-.123 0-.247.124-.37.124-.124 0-.494.123-.988.123s-.864.123-1.235.247c-.37.123-.617.37-.864.616-.247.247-.493.494-.617.864-.123.37-.247.863-.37 1.356zm0 .864v.74c0 .37 0 .74.123 1.11 0 .37.124.74.37.986.124.247.37.494.618.74.247.124.617.247.987.247s.618-.123.865-.247a1.49 1.49 0 00.617-.616 6.01 6.01 0 00.37-.864c.124-.246.124-.616.124-.986s0-.617-.124-.987c0-.247-.123-.617-.37-.74-.124-.247-.37-.37-.617-.493a2.328 2.328 0 00-.988-.247c-.247 0-.37 0-.617.123-.247.124-.37.124-.618.247-.123.123-.37.247-.493.37-.124.123-.124.493-.247.617z" fill="#000"/></g><defs><clipPath id="clip0"><path fill="#fff" d="M0 0h50v84H0z"/></clipPath></defs></svg>
